packages/dnb-ui-lib/assets/icons/coins_3.svg

<svg width="17" height="17" viewBox="0 0 17 17" fill="none" xmlns="http://www.w3.org/2000/svg">
<path d="M14.6462 3.92306V7.06151M13.2513 5.49229H16.2154M3.13846 0.784614V3.92307M1.56923 2.35382H4.70769M5.44002 12.8154H12.2749C12.5445 12.8154 12.7631 13.0339 12.7631 13.3036V15.4656C12.7631 15.7352 12.5445 15.9538 12.2749 15.9538H5.44002C5.17039 15.9538 4.95181 15.7352 4.95181 15.4656V13.3036C4.95181 13.0339 5.17039 12.8154 5.44002 12.8154ZM6.41643 9.6769H13.2513C13.5209 9.6769 13.7395 9.89547 13.7395 10.1651V12.3271C13.7395 12.5968 13.5209 12.8154 13.2513 12.8154H6.41643C6.1468 12.8154 5.92822 12.5968 5.92822 12.3271V10.1651C5.92822 9.89547 6.1468 9.6769 6.41643 9.6769ZM3.4872 6.53844H10.3221C10.5917 6.53844 10.8103 6.75702 10.8103 7.02664V9.18869C10.8103 9.45832 10.5917 9.6769 10.3221 9.6769H3.4872C3.21757 9.6769 2.999 9.45832 2.999 9.18869V7.02664C2.999 6.75702 3.21757 6.53844 3.4872 6.53844Z" stroke="black" stroke-width="1.5" stroke-linecap="round" stroke-linejoin="round"/>
</svg>

<svg width="16" height="16" viewBox="0 0 17 17" fill="none" xmlns="http://www.w3.org/2000/svg"><path d="M14.646 3.923v3.139m-1.395-1.57h2.964M3.138.785v3.138M1.57 2.353h3.139m.732 10.462h6.835c.27 0 .488.219.488.489v2.162c0 .27-.219.488-.488.488H5.44a.488.488 0 01-.488-.488v-2.162c0-.27.218-.489.488-.489zm.976-3.138h6.835c.27 0 .489.218.489.488v2.162c0 .27-.22.488-.489.488H6.416a.488.488 0 01-.488-.488v-2.162c0-.27.219-.488.488-.488zm-2.93-3.139h6.835c.27 0 .488.219.488.489v2.162c0 .27-.218.488-.488.488H3.487A.488.488 0 013 9.189V7.027c0-.27.219-.489.488-.489z" stroke="#000" stroke-width="1.5" stroke-linecap="round" stroke-linejoin="round"/></svg>
